X: 37130
T: Siney Crotty's
R: jig
M: 6/8
K: Amajor
e2d|:cde A2B|Bce BAF|E2F A2B|~c3 ~B3|
cde A2B|Bce BAF|E2F A2B|~A3 A2B:|
|:c2e ~e2c|~e2c ~e3|d2f ~f2d|~f2d fed|
c2e ~e2c|~e2c ~e3|faa ~a2g|~a3 a2d:|

